korla-light/actions/symbolic/help-info-symbolic.svg

<svg style="clip-rule:evenodd;fill-rule:evenodd;stroke-linejoin:round;stroke-miterlimit:2" version="1.1" viewBox="0 0 16 16" xmlns="http://www.w3.org/2000/svg">
 <path d="m8 1c-3.84 0-7 3.16-7 7s3.16 7 7 7 7-3.16 7-7-3.16-7-7-7zm0 0.8c3.401 0 6.2 2.799 6.2 6.2s-2.799 6.2-6.2 6.2-6.2-2.799-6.2-6.2 2.799-6.2 6.2-6.2z" style="fill-opacity:.5;fill:rgb(68,68,68)"/>
 <rect x="7" y="7" width="2" height="5" style="fill:rgb(68,68,68)"/>
 <path d="m8 3.75c0.686 0 1.25 0.564 1.25 1.25s-0.564 1.25-1.25 1.25-1.25-0.564-1.25-1.25 0.564-1.25 1.25-1.25z" style="fill:rgb(68,68,68)"/>
</svg>

<svg xmlns="http://www.w3.org/2000/svg" width="16" height="16" version="1.1">
 <path style="fill:#444444" d="M 8 1 A 7 7 0 0 0 1 8 A 7 7 0 0 0 8 15 A 7 7 0 0 0 15 8 A 7 7 0 0 0 8 1 z M 8 3.75 A 1.25 1.25 0 0 1 9.25 5 A 1.25 1.25 0 0 1 8 6.25 A 1.25 1.25 0 0 1 6.75 5 A 1.25 1.25 0 0 1 8 3.75 z M 7 7 L 9 7 L 9 12 L 7 12 L 7 7 z"/>
</svg>
